X:37
T: LIRUM LARUM LOEFFELSTIEL
N: K0222
O: Europa, Mitteleuropa, Deutschland, Thueringen, Stotternheim
R: Kinder -, Kose -, Scherz - Lied
M: 2/4
L: 1/8
K: G
 | ddBG | eed2 |
ccBB | AAG2 |
ddBG | eed2 |
ccBB | AAG2

@@@ Tune index: 7374
